picto/tracks-78-fr-small-framed.svg

<svg class="color-immutable" width="30" height="30" viewBox="0 0 30 30" fill="none" xmlns="http://www.w3.org/2000/svg"><path d="M30 0H0V30H30V0Z" fill="#2D327D"/><path d="M25.5 3C26.325 3 27 3.675 27 4.5V25.5C27 26.325 26.325 27 25.5 27H4.5C3.675 27 3 26.325 3 25.5V4.5C3 3.675 3.675 3 4.5 3H25.5ZM25.5 2.625H4.5C3.46613 2.625 2.625 3.46613 2.625 4.5V25.5C2.625 26.5339 3.46613 27.375 4.5 27.375H25.5C26.5339 27.375 27.375 26.5339 27.375 25.5V4.5C27.375 3.46613 26.5339 2.625 25.5 2.625Z" fill="white"/><path d="M13.9988 12.7566V14.6639C13.9373 14.7305 13.7552 14.9382 13.4528 15.2868C13.0323 15.7688 12.6145 16.375 12.1992 17.1056C11.784 17.8361 11.4609 18.5374 11.2302 19.2089C10.7431 20.6086 10.4484 22.2057 10.3458 24.0001H8.02332C8.03869 23.1542 8.18599 22.2159 8.46552 21.1854C8.74489 20.1549 9.13077 19.1244 9.62292 18.0938C10.3253 16.6379 11.0379 15.5535 11.7609 14.8407H6.45447V12.7566H13.9988Z" fill="white"/><path d="M17.6779 17.963C17.1549 17.7836 16.7538 17.4889 16.4743 17.0786C16.1948 16.6685 16.0552 16.1711 16.0552 15.5867C16.0552 14.6126 16.4551 13.8359 17.2549 13.2564C17.9625 12.7438 18.8032 12.4874 19.7774 12.4874C20.8848 12.4874 21.7896 12.7925 22.4921 13.4025C23.1585 13.9768 23.4918 14.6868 23.4918 15.5328C23.4918 16.1225 23.3508 16.6275 23.0688 17.0478C22.7868 17.4683 22.3869 17.7733 21.8691 17.9629C22.2741 18.0809 22.6048 18.2321 22.8612 18.4167C23.5738 18.9346 23.9302 19.6908 23.9302 20.6854C23.9302 21.8287 23.4918 22.7387 22.6152 23.4154C21.8769 23.9845 20.9283 24.2691 19.7697 24.2691C18.5136 24.2691 17.5138 23.9564 16.7705 23.3308C15.9963 22.6798 15.6093 21.8262 15.6093 20.7699C15.6093 19.7805 15.9527 19.014 16.6398 18.4705C16.9524 18.2297 17.2984 18.0605 17.6779 17.963ZM19.7313 18.8089C19.1775 18.8089 18.725 18.9794 18.3739 19.3204C18.0226 19.6614 17.8471 20.0984 17.8471 20.6315C17.8471 21.1802 18.0252 21.6262 18.3816 21.9697C18.7379 22.3132 19.2006 22.4849 19.7697 22.4849C20.4157 22.4849 20.9002 22.2953 21.2232 21.9158C21.5359 21.5518 21.6924 21.1314 21.6924 20.6546C21.6924 20.1112 21.5128 19.6652 21.154 19.3165C20.8104 18.9782 20.3361 18.8089 19.7313 18.8089ZM19.7466 14.2331C19.2545 14.2331 18.8571 14.3704 18.5546 14.6446C18.252 14.9189 18.1008 15.2791 18.1008 15.7251C18.1008 16.1918 18.2533 16.5647 18.5585 16.8441C18.8634 17.1236 19.2723 17.2632 19.785 17.2632C20.2977 17.2632 20.7027 17.1248 21.0001 16.8479C21.2974 16.5711 21.4461 16.1942 21.4461 15.7174C21.4461 15.2509 21.2962 14.8868 20.9962 14.6254C20.6964 14.3639 20.2797 14.2331 19.7466 14.2331Z" fill="white"/><path d="M8.03591 6L7.28839 8.24865H6.73009L5.99329 6H6.50704L7.01306 7.6842L7.52681 6H8.03591Z" fill="white"/><path d="M8.87413 6.5229C9.11818 6.5229 9.3176 6.6039 9.47248 6.7659C9.62525 6.92588 9.70168 7.13918 9.70168 7.40573C9.70168 7.68158 9.62015 7.90148 9.4571 8.06558C9.30433 8.21835 9.10543 8.29478 8.86033 8.29478C8.59888 8.29478 8.39068 8.20965 8.23588 8.03948C8.0882 7.87748 8.0144 7.66725 8.0144 7.40888C8.0144 7.15455 8.08618 6.94793 8.22973 6.789C8.38865 6.61163 8.60345 6.5229 8.87413 6.5229ZM8.8511 6.87053C8.7332 6.87053 8.63938 6.91823 8.56963 7.01355C8.4989 7.10993 8.4635 7.2417 8.4635 7.40888C8.4635 7.5822 8.49838 7.71495 8.56813 7.80728C8.6399 7.90058 8.73785 7.94723 8.8619 7.94723C8.97778 7.94723 9.06958 7.9047 9.13723 7.81958C9.2141 7.72523 9.25258 7.58835 9.25258 7.40888C9.25258 7.24073 9.21875 7.11 9.15103 7.0167C9.0803 6.91928 8.98033 6.87053 8.8511 6.87053Z" fill="white"/><path d="M10.4491 6V6.40147H10.0031V6H10.4491ZM10.4491 6.57217V8.24873H10.0031V6.57217H10.4491Z" fill="white"/><path d="M12.321 7.72575C12.2975 7.8201 12.2549 7.90875 12.1934 7.99185C12.0457 8.19382 11.8334 8.29485 11.5566 8.29485C11.3064 8.29485 11.1059 8.21587 10.9552 8.058C10.8814 7.98112 10.825 7.88827 10.786 7.7796C10.7439 7.66372 10.7229 7.54275 10.7229 7.4166C10.7229 7.17255 10.7932 6.9675 10.9337 6.80137C11.0906 6.61575 11.2936 6.52297 11.5427 6.52297C11.7437 6.52297 11.915 6.585 12.0565 6.70905C12.158 6.79822 12.2318 6.90825 12.278 7.03897C12.3241 7.1697 12.3472 7.33402 12.3472 7.53195H11.1767C11.1809 7.614 11.1937 7.68217 11.2152 7.73655C11.2757 7.88317 11.3906 7.95652 11.5598 7.95652C11.6428 7.95652 11.7105 7.9383 11.7628 7.90192C11.8151 7.86555 11.8581 7.80682 11.892 7.72582H12.321V7.72575ZM11.8919 7.23202C11.8838 7.15102 11.8653 7.08382 11.8366 7.0305C11.8079 6.97822 11.7671 6.93667 11.7143 6.90592C11.6615 6.87517 11.6039 6.8598 11.5413 6.8598C11.4419 6.8598 11.3598 6.8931 11.2952 6.95977C11.2307 7.02645 11.1922 7.1172 11.1799 7.23202H11.8919Z" fill="white"/></svg>

<svg class="color-immutable" width="30" height="30" viewBox="0 0 30 30" fill="none" xmlns="http://www.w3.org/2000/svg"><g clip-path="url(#a)"><path d="M30 0H0v30h30V0Z" fill="#2D327D"/><path d="M25.5 3c.825 0 1.5.675 1.5 1.5v21c0 .825-.675 1.5-1.5 1.5h-21c-.825 0-1.5-.675-1.5-1.5v-21C3 3.675 3.675 3 4.5 3h21Zm0-.375h-21A1.877 1.877 0 0 0 2.625 4.5v21c0 1.034.841 1.875 1.875 1.875h21a1.877 1.877 0 0 0 1.875-1.875v-21A1.877 1.877 0 0 0 25.5 2.625Z" fill="#fff"/><path d="M13.999 12.757v1.907a42.93 42.93 0 0 0-.546.623c-.42.482-.838 1.088-1.254 1.819-.415.73-.738 1.431-.969 2.103-.487 1.4-.782 2.997-.884 4.791H8.023c.016-.846.163-1.784.443-2.815.279-1.03.665-2.06 1.157-3.091.702-1.456 1.415-2.54 2.138-3.253H6.454v-2.084H14ZM17.678 17.963c-.523-.18-.924-.474-1.204-.884-.28-.41-.419-.908-.419-1.492 0-.974.4-1.751 1.2-2.33.707-.513 1.548-.77 2.522-.77 1.108 0 2.013.306 2.715.915.666.575 1 1.285 1 2.13 0 .59-.141 1.096-.423 1.516-.282.42-.682.725-1.2.915.405.118.736.27.992.454.713.518 1.07 1.274 1.07 2.268 0 1.144-.44 2.054-1.316 2.73-.738.57-1.687.854-2.845.854-1.256 0-2.256-.313-3-.938-.774-.651-1.16-1.505-1.16-2.561 0-.99.343-1.756 1.03-2.3.312-.24.658-.41 1.038-.507Zm2.053.846c-.554 0-1.006.17-1.357.511-.351.341-.527.778-.527 1.311 0 .55.178.995.535 1.339.356.343.819.515 1.388.515.646 0 1.13-.19 1.453-.57.313-.363.47-.784.47-1.26 0-.544-.18-.99-.539-1.338-.344-.339-.818-.508-1.423-.508Zm.016-4.576c-.492 0-.89.137-1.192.412-.303.274-.454.634-.454 1.08 0 .467.152.84.457 1.12.305.279.714.418 1.227.418.513 0 .918-.138 1.215-.415.297-.277.446-.654.446-1.13 0-.467-.15-.831-.45-1.093-.3-.261-.716-.392-1.25-.392ZM8.036 6l-.748 2.249H6.73L5.993 6h.514l.506 1.684L7.527 6h.509ZM8.874 6.523c.244 0 .444.08.598.243.153.16.23.373.23.64 0 .276-.082.495-.245.66a.807.807 0 0 1-.597.229c-.261 0-.47-.085-.624-.256-.148-.162-.222-.372-.222-.63 0-.254.072-.461.216-.62.159-.177.373-.266.644-.266Zm-.023.348a.331.331 0 0 0-.281.143.656.656 0 0 0-.107.395c0 .173.035.306.105.398a.35.35 0 0 0 .294.14.333.333 0 0 0 .275-.127c.077-.095.116-.232.116-.411 0-.168-.034-.299-.102-.392a.349.349 0 0 0-.3-.146ZM10.45 6v.401h-.447V6h.446Zm0 .572V8.25h-.447V6.572h.446ZM12.321 7.726a.75.75 0 0 1-.128.266c-.147.202-.36.303-.636.303-.25 0-.451-.08-.602-.237a.773.773 0 0 1-.169-.278 1.055 1.055 0 0 1-.063-.363c0-.244.07-.45.21-.616a.76.76 0 0 1 .61-.278c.2 0 .372.062.514.186.101.09.175.2.221.33.046.13.07.295.07.493h-1.171c.004.082.017.15.038.205.06.146.176.22.345.22.083 0 .15-.019.203-.055a.39.39 0 0 0 .129-.176h.429Zm-.43-.494a.537.537 0 0 0-.054-.202.337.337 0 0 0-.295-.17c-.1 0-.182.033-.247.1a.447.447 0 0 0-.115.272h.712Z" fill="#fff"/></g><defs><clipPath id="a"><path fill="#fff" d="M0 0h30v30H0z"/></clipPath></defs></svg>
